build/img/gift.svg

<svg width="30" height="30" viewBox="0 0 30 30" fill="none" xmlns="http://www.w3.org/2000/svg">
<circle opacity="0.1" cx="15" cy="15" r="15" fill="#9564AA"/>
<path fill-rule="evenodd" clip-rule="evenodd" d="M10.6647 11.6667C10.4459 11.309 10.3333 10.8686 10.3333 10.3334C10.3333 9.2781 11.1269 8.33337 12.3333 8.33337C13.5413 8.33337 14.5155 9.14246 15 10.4093C15.4845 9.14246 16.4587 8.33337 17.6666 8.33337C18.8731 8.33337 19.6666 9.2781 19.6666 10.3334C19.6666 10.8686 19.5541 11.309 19.3353 11.6667H20.3333C21.0697 11.6667 21.6666 12.2637 21.6666 13V14.3334C21.6666 15.0698 21.0697 15.6667 20.3333 15.6667V20.3334C20.3333 21.0698 19.7364 21.6667 19 21.6667H11C10.2636 21.6667 9.66665 21.0698 9.66665 20.3334V15.6667C8.93027 15.6667 8.33331 15.0698 8.33331 14.3334V13C8.33331 12.2637 8.93027 11.6667 9.66665 11.6667H10.6647ZM14.3333 13H9.66665V14.3334H14.3333V13ZM20.3333 14.3334H15.6666V13H20.3333V14.3334ZM14.3333 20.3334V15.6667H11V20.3334H14.3333ZM19 20.3334H15.6666V15.6667H19V20.3334ZM12.3333 9.66671C11.9197 9.66671 11.6666 9.96802 11.6666 10.3334C11.6666 11.1689 12.3446 11.5661 13.9529 11.6497C13.7742 10.4078 13.1081 9.66671 12.3333 9.66671ZM16 11.6497C16.1787 10.4078 16.8448 9.66671 17.6196 9.66671C18.0332 9.66671 18.2863 9.96802 18.2863 10.3334C18.2863 11.1689 17.6083 11.5661 16 11.6497Z" fill="#9564AA"/>
</svg>

<svg width="30" height="30" fill="none" xmlns="http://www.w3.org/2000/svg"><circle opacity=".1" cx="15" cy="15" r="15" fill="#9564AA"/><path fill-rule="evenodd" clip-rule="evenodd" d="M10.665 11.667c-.22-.358-.332-.798-.332-1.334 0-1.055.794-2 2-2 1.208 0 2.182.81 2.667 2.076.485-1.267 1.459-2.076 2.667-2.076 1.206 0 2 .945 2 2 0 .536-.113.976-.332 1.334h.998c.737 0 1.334.597 1.334 1.333v1.333c0 .737-.597 1.334-1.334 1.334v4.666c0 .737-.597 1.334-1.333 1.334h-8a1.333 1.333 0 0 1-1.333-1.334v-4.666a1.333 1.333 0 0 1-1.334-1.334V13c0-.736.597-1.333 1.334-1.333h.998ZM14.333 13H9.667v1.333h4.666V13Zm6 1.333h-4.666V13h4.666v1.333Zm-6 6v-4.666H11v4.666h3.333Zm4.667 0h-3.333v-4.666H19v4.666ZM12.333 9.667c-.413 0-.666.301-.666.666 0 .836.678 1.233 2.286 1.317-.179-1.242-.845-1.983-1.62-1.983ZM16 11.65c.179-1.242.845-1.983 1.62-1.983.413 0 .666.301.666.666 0 .836-.678 1.233-2.286 1.317Z" fill="#9564AA"/></svg>
